X:1
T:Partita N° 3 for Keyboard
T:Partita N° 3 for Keyboard
T:Partita No.3 in A minor, BWV 827 
T:J.S.Bach
C:J.S.Bach
%%score { ( 1 5 6 ) | ( 2 3 4 7 ) }
L:1/8
Q:1/4=112
M:3/4
K:C
V:1 treble nm="Piano" snm="Pno."
V:5 treble 
V:6 treble 
V:2 bass 
V:3 bass 
V:4 bass 
V:7 bass 
V:1
"^Allegro."!mf! (A.B) (PBA/B/ c^G) | (A2 E2 A2) | (B.c) (PcB/c/ dA) | (B2 e2 d2) | %4
!<(! d/c/B/c/-!<)!!f! .f2 .e2 |!<(! B/A/^G/A/-!<)!!f! .d2 .c2 | %6
 z/ B/!<(!A/^G/ A/B/c/d/ e/d/e/!<)!f/ | P^G3 ^F E2 |!p! c6- | c/c/B/"_cresc."c/ d/c/B/c/ a/c/B/c/ | %10
 d6- | d/d/c/d/ e/d/c/d/ b/d/c/d/ |!<(! (e2 ^f^ga!<)!b) |!f! c'/a/=g/a/ b/g/"_dim."^f/g/ a/f/e/f/ | %14
 g/e/^d/e/ ^f2 d2 |1!>(! e6!>)! :|2!>(! e6!>)! |:!p! (B.c) (PcB/c/ dB) | (FE)(FD)(EB) | %19
!mf! (^c.d) (Pdc/d/ ec) | (_BA)(BG)(Ag) | f/!<(!d/^c/d/!<)!!f! _b2 a2 | %22
 e/!<(!d/^c/d/-!<)!!f! .g2 .f2- | f"_dim."efed^c |!p! d6 |!mf! !^!f6 | %26
 f/B/A/B/ =c/B/!<(!A/B/ d/B/A/B/!<)! | !^!e6 | e/A/^G/A/ B/A/G/A/!<(! c/A/G/A/ | %29
 d/e/!<)!f- f/e/d/c/ d/c/B/A/ |!<(! B/c/!<)!d- d/c/B/A/ B/A/^G/^F/ | %31
 E/^G/!<(!^F/E/ A/c/B/A/ d/c/B/A/!<)! | ed/c/!>(! B/A/^G/^F/ E/D/C/B,/!>)! | %33
!p! z/ E/D/E/ ^F/E/D/E/ =G/E/D/E/ | z/"_cresc. poco a poco" ^F/E/F/ ^G/F/E/F/ A/F/E/F/ | %35
 z/ ^G/^F/G/ A/G/F/G/ B/G/F/G/ | z/ A/^G/A/ B/A/G/A/ ^c/A/G/A/ | d/A/^G/A/ e/A/G/A/!f! f2- | %38
 f/d/=c/d/"_dim." e/c/B/c/ d/B/A/B/ | c/A/^G/A/ B2 G2 |!>(! A6!>)! :| %41
V:2
 !wedge![E,A,]2 z2 z2 | (A,.B,) (PB,A,/B,/ CA,) | (^G,2 A,2 F,2) | (E,.^F,) (PF,E,/F,/ ^G,E,) | %4
 (A,.A,,) z4 | x6 | DB, CA,/B,/ CD |!>(! EFEDC!>)!B, | (A,.A,,) z/ A,/G,/F,/ E,/G,/E,/C,/ | %9
 (F,.F,,)(A,G,)(A,^F,) | (^F,.^F,,) z/ F,/G,/A,/ G,/F,/E,/D,/ | (G,.G,,)(B,A,)(A,^G,) | %12
 ^G,/F/E/D/ C/E/D/C/ B,/D/C/B,/ | A,2 =G,2 ^F,2 | E,^F,/G,/ A,,2 B,,2 |1 %15
 E,,B,,E,!<(!D,C,B,,!<)! :|2 E,,2 B,,2 E,2 |: (^G,.A,) (PA,G,/A,/ B,) z | B,2 B,2 B,2 | =G,4 z2 | %20
 z6 | z6 | z6 |[I:staff -1] G[I:staff +1]G, A,2 A,,2 | (D,A,,/G,,/ F,,/G,,/A,, D,,2) | %25
 z/ D,/E,/F,/!<(! G,/A,/B,/^C/ D/E/!<)!F/D/ | G!>(!DG,D,!>)! G,,2 | %27
 z/ C,/D,/E,/!<(! F,/G,/A,/B,/ C/D/E/!<)!C/ | F!>(!CF,C,!>)! F,,2 | z (B,,!<(!C,D,E,!<)!^F, | %30
 ^G,)(E,^F,G,A,B, | CB,CD^G,A,) | ^G,/A,/B,- B,/A,/G,/^F,/ E,/D,/C,/B,,/ | (C,C)(B,C,^C,A,) | %34
 (D,D)(=CD,^D,B,) | (E,E)(=DE,=F,D) | CB,A,F=G,E | F,DE,^C z D | ^G, B,2 A,2 G, | A,2 x2 x2 | %40
 z2 E,2 A,2 :| %41
V:3
 !>!A,,2 z2 z2 | z6 | x6 | x6 | x6 | x6 | x6 | x6 | x6 | x6 | x6 | x6 | x6 | x6 | x6 |1 x6 :|2 %16
 x6 |: E,4 z2 | ^G,2 G,2 G,2 | x6 | x6 | x6 | x6 | x6 | x6 | x6 | x6 | x6 | x6 | x6 | x6 | x6 | %32
 x6 | x6 | x6 | x6 | x6 | x4 D,2- | D,2 =C,2 B,,2 | A,,B,,/C,/ D,,2 E,,2 | A,,6 :| %41
V:4
 C,2 x4 | x6 | x6 | x6 | x6 | x6 | x6 | x6 | x6 | x6 | x6 | x6 | x6 | x6 | x6 |1 x6 :|2 x6 |: x6 | %18
 x6 | x6 | x6 | x6 | x6 | x6 | x6 | x6 | x6 | x6 | x6 | x6 | x6 | x6 | x6 | x6 | x6 | x6 | x6 | %37
 x6 | x6 | x6 | x6 :| %41
V:5
 x6 | x6 | x6 | x6 | x2 c2 B2 | x2 A2 =G2 | F2 E2 x2 | x6 | z (E/=F/) PF3/2E/4F/4 GC | A2 z2 z2 | %10
 z (A/B/) PB3/2A/4B/4 cA | B2 z2 z2 | z ^G ABcd | e ^F2 E2 ^D | E2 z c2 B |1 (A2 ^G4) :|2 %16
 (A2 ^G4) |: x6 | x6 | (E.F) (PFE/F/ G) z | E2 E2 E2 | f2 f2 e2 | x2 d2 =c2 | _B2 AGFE | F6 | %25
 z d^cdAd- | d z z2 z2 | z cBcGc- | c z z2 z2 | x6 | x6 | x6 | x6 | x6 | x6 | x6 | x6 | x6 | x6 | %39
 x2 z F2 E | (D2 C4) :| %41
V:6
 x6 | x6 | x6 | x6 | x2 z/!>(! A/G/F/ z/ G/F/!>)!E/ | x2 z/!>(! F/E/D/ z/ E/D/!>)!C/ | x6 | x6 | %8
 x6 | x6 | x6 | x6 | x6 | x6 | x6 |1 x6 :|2 x6 |: x6 | x6 | x6 | ^C2 C2 C2 | %21
 D2 z/!>(! d/=c/_B/ z/ c/B/!>)!A/ | x2 z/!>(! _B/A/G/ z/ A/G/!>)!F/ | x6 | x6 | x6 | x6 | x6 | x6 | %29
 x6 | x6 | x6 | x6 | x6 | x6 | x6 | x6 | x6 | x6 | x6 | x6 :| %41
V:7
 x6 | x6 | x6 | x6 | x6 |[I:staff -1] (F[I:staff +1].F,) x4 | x6 | x6 | x6 | x6 | x6 | x6 | x6 | %13
 x6 | x6 |1 x6 :|2 x6 |: x6 | x6 | x6 | x6 |[I:staff -1] (D[I:staff +1].D,) x4 | %22
[I:staff -1] (_B[I:staff +1]._B,) x4 | x6 | x6 | x6 | x6 | x6 | x6 | x6 | x6 | x6 | x6 | x6 | x6 | %35
 x6 | x6 | x6 | x6 | x6 | x6 :| %41

